X:3
T:Alt så trækker vi
R:Sönderhoning
R:Sønderhoning
O:Fanø, Danmark
B:Spelmansmusik
M:2/4
L:1/8
K:G
Q:1/4=90
"G"DG G/G/G|GA B/B/B|GB d/d/d|"D"cA "G"B2|
"G"GG G/G/G|GA B/B/B|GB d/d/d|"D"cA "G"B2||
"G"dB/B/ BG|GB "D"A2|"Am"cA/A/ FG|"D"A2 A2|
"G"dB/B/ BG|GB "D"A2|"Am"cA/A/ "D"FD|"G"G2 G2|]

